**kern	**kern
*staff2	*staff1
*clefF4	*clefG2
*k[b-e-a-]	*k[b-e-a-]
*M2/4	*M2/4
*E-:	*E-:
=-	=-
8DL 8F	32b-LLL
.	32bb-
.	32b-
.	32bb-JJ
8DJ 8F	32b-LL
.	32bb-
.	32b-
.	32bb-JJJ
8DL 8F	32b-LLL
.	32bb-
.	32b-
.	32bb-JJ
8FJ 8A-	32b-LL
.	32bb-
.	32b-
.	32bb-JJJ
=208	=208
*^	*
(4F 4A-	2BB-	32b-LLL
.	.	32bb-
.	.	32b-
.	.	32bb-JJ
.	.	32b-LL
.	.	32bb-
.	.	32b-
.	.	32bb-JJJ
8E-L) 8G	.	32b-LLL
.	.	32bb-
.	.	32b-
.	.	32bb-JJ
8B-J	.	32b-LL
.	.	32bb-
.	.	32b-
.	.	32bb-JJJ
=209	=209	=209
8B-L	8r	32b-LLL
.	.	32bb-
.	.	32b-
.	.	32bb-JJ
*v	*v	*
8DJ 8F	32b-LL
.	32bb-
.	32b-
.	32bb-JJJ
8DL 8F	32b-LLL
.	32bb-
.	32b-
.	32bb-JJ
8FJ 8A-	32b-LL
.	32bb-
.	32b-
.	32bb-JJJ
=210	=210
*^	*
(4F 4A-	2BB-	32b-LLL
.	.	32bb-
.	.	32b-
.	.	32bb-JJ
.	.	32b-LL
.	.	32bb-
.	.	32b-
.	.	32bb-JJJ
8E-L) 8G	.	32b-LLL
.	.	32bb-
.	.	32b-
.	.	32bb-JJ
8B-J	.	32b-LL
.	.	32bb-
.	.	32b-
.	.	32bb-JJJ
=211	=211	=211
(8e-	2F 2A-	32b-LLL
.	.	32bb-
.	.	32b-
.	.	32bb-JJ
4d	.	32b-LL
.	.	32bb-
.	.	32b-
.	.	32bb-JJJ
.	.	32b-LLL
.	.	32bb-
.	.	32b-
.	.	32bb-JJ
16cLL	.	32b-LL
.	.	32bb-
16B-JJ)	.	32b-
.	.	32bb-JJJ
=212	=212	=212
(8e-	2F 2A-	32b-LLL
.	.	32bb-
.	.	32b-
.	.	32bb-JJ
4d	.	32b-LL
.	.	32bb-
.	.	32b-
.	.	32bb-JJJ
.	.	32b-LLL
.	.	32bb-
.	.	32b-
.	.	32bb-JJ
16cLL	.	32b-LL
.	.	32bb-
16B-JJ)	.	32b-
.	.	32bb-JJJ
*v	*v	*
=213	=213
8G 8e-	8b-'L 8bb-'
8r	8b'J 8bb'
8A- 8e-	8cc' 8ccc'
8r	16r
.	16aa-'
=214	=214
*^	*
8r	2BB-	(16ggLL
.	.	16bb-JJ)
(8G	.	16r
.	.	16ee-'
8A-L	.	(16ffLL
.	.	16aa-JJ)
8FJ)	.	16r
.	.	16dd'
=215	=215	=215
8G	8E-	(32ee-LLL
.	.	32ff
.	.	32gg
.	.	32aa-JJ
8r	8r	32bb-LL
.	.	32aa-
.	.	32gg
.	.	32ffJJJ
4r	4r	32ee-LLL
.	.	32dd
.	.	32cc
.	.	32b-JJ
.	.	32a-LL
.	.	32g
.	.	32f
.	.	32e-JJJ)
*v	*v	*
=	=
*-	*-
